Assets/Materials/color-processing.cube
#Created by: Pixelmator Pro
#Color profile: "sRGB IEC61966-2.1"
TITLE "color-processing"
#Data domain
DOMAIN_MIN 0.0000 0.0000 0.0000
DOMAIN_MAX 1.0000 1.0000 1.0000
#LUT size
LUT_3D_SIZE 35
0.0220 0.0451 0.0610
0.0220 0.0451 0.0610
0.0220 0.0451 0.0610
0.0220 0.0451 0.0610
0.0220 0.0451 0.0610
0.0259 0.0462 0.0610
0.0380 0.0491 0.0610
0.0498 0.0525 0.0610
0.0624 0.0562 0.0610
0.0765 0.0604 0.0610
0.0929 0.0650 0.0610
0.1121 0.0698 0.0610
0.1349 0.0747 0.0610
0.1622 0.0795 0.0610
0.1943 0.0844 0.0610
0.2307 0.0894 0.0610
0.2710 0.0946 0.0610
0.3142 0.0999 0.0610
0.3596 0.1056 0.0610
0.4058 0.1117 0.0610
0.4520 0.1181 0.0610
0.4968 0.1251 0.0610
0.5394 0.1326 0.0610
0.5787 0.1410 0.0610
0.6147 0.1502 0.0610
0.6479 0.1606 0.0610
0.6786 0.1725 0.0610
0.7071 0.1862 0.0610
0.7337 0.2022 0.0610
0.7586 0.2212 0.0610
0.7818 0.2447 0.0610
0.8029 0.2781 0.0610
0.8225 0.3254 0.0610
0.8412 0.3916 0.0610
0.8596 0.4841 0.0610
0.0220 0.0451 0.0610
0.0220 0.0451 0.0610
0.0220 0.0451 0.0610
0.0224 0.0454 0.0610
0.0298 0.0492 0.0610
0.0398 0.0532 0.0610
0.0500 0.0573 0.0610
0.0612 0.0615 0.0610
0.0739 0.0661 0.0610
0.0886 0.0707 0.0610
0.1058 0.0752 0.0610
0.1262 0.0796 0.0610
0.1505 0.0841 0.0610
0.1791 0.0887 0.0610
0.2122 0.0933 0.0610
0.2492 0.0981 0.0610
0.2895 0.1032 0.0610
0.3322 0.1084 0.0610
0.3765 0.1140 0.0610
0.4214 0.1199 0.0610
0.4659 0.1263 0.0610
0.5089 0.1332 0.0610
0.5495 0.1407 0.0610
0.5870 0.1490 0.0610
0.6215 0.1582 0.0610
0.6534 0.1686 0.0610
0.6830 0.1804 0.0610
0.7105 0.1940 0.0610
0.7363 0.2099 0.0610
0.7606 0.2286 0.0610
0.7832 0.2521 0.0610
0.8039 0.2854 0.0610
0.8231 0.3322 0.0610
0.8416 0.3974 0.0610
0.8598 0.4885 0.0610
0.0220 0.0451 0.0610
0.0220 0.0451 0.0610
0.0234 0.0473 0.0610
0.0296 0.0522 0.0610
0.0387 0.0575 0.0610
0.0483 0.0629 0.0610
0.0589 0.0685 0.0610
0.0705 0.0729 0.0610
0.0839 0.0771 0.0610
0.0995 0.0812 0.0610
0.1179 0.0852 0.0610
0.1396 0.0893 0.0610
0.1653 0.0934 0.0610
0.1952 0.0977 0.0610
0.2290 0.1022 0.0610
0.2663 0.1068 0.0610
0.3063 0.1117 0.0610
0.3484 0.1169 0.0610
0.3917 0.1223 0.0610
0.4352 0.1282 0.0610
0.4782 0.1345 0.0610
0.5196 0.1413 0.0610
0.5584 0.1487 0.0610
0.5943 0.1569 0.0610
0.6275 0.1661 0.0610
0.6582 0.1764 0.0610
0.6869 0.1881 0.0610
0.7136 0.2016 0.0610
0.7387 0.2173 0.0610
0.7624 0.2358 0.0610
0.7845 0.2593 0.0610
0.8047 0.2924 0.0610
0.8237 0.3386 0.0610
0.8419 0.4029 0.0610
0.8600 0.4926 0.0610
0.0229 0.0525 0.0658
0.0252 0.0574 0.0691
0.0277 0.0634 0.0660
0.0362 0.0664 0.0610
0.0454 0.0703 0.0610
0.0551 0.0756 0.0610
0.0664 0.0805 0.0610
0.0794 0.0852 0.0610
0.0944 0.0898 0.0610
0.1118 0.0941 0.0610
0.1317 0.0977 0.0610
0.1552 0.1015 0.0610
0.1826 0.1055 0.0610
0.2138 0.1096 0.0610
0.2485 0.1137 0.0610
0.2861 0.1181 0.0610
0.3260 0.1227 0.0610
0.3674 0.1277 0.0610
0.4096 0.1330 0.0610
0.4516 0.1387 0.0610
0.4927 0.1449 0.0610
0.5320 0.1516 0.0610
0.5687 0.1590 0.0610
0.6028 0.1672 0.0610
0.6344 0.1763 0.0610
0.6639 0.1864 0.0610
0.6914 0.1980 0.0610
0.7173 0.2112 0.0610
0.7416 0.2266 0.0610
0.7646 0.2447 0.0610
0.7860 0.2682 0.0610
0.8058 0.3010 0.0610
0.8244 0.3466 0.0610
0.8423 0.4097 0.0610
0.8603 0.4977 0.0610
0.0284 0.0684 0.0817
0.0315 0.0732 0.0870
0.0332 0.0785 0.0867
0.0374 0.0849 0.0790
0.0497 0.0877 0.0610
0.0614 0.0894 0.0610
0.0732 0.0939 0.0610
0.0872 0.0982 0.0610
0.1036 0.1025 0.0610
0.1229 0.1069 0.0610
0.1455 0.1114 0.0610
0.1719 0.1161 0.0610
0.2012 0.1198 0.0610
0.2338 0.1235 0.0610
0.2693 0.1276 0.0610
0.3071 0.1319 0.0610
0.3467 0.1365 0.0610
0.3874 0.1411 0.0610
0.4284 0.1462 0.0610
0.4689 0.1517 0.0610
0.5081 0.1576 0.0610
0.5453 0.1641 0.0610
0.5800 0.1713 0.0610
0.6122 0.1793 0.0610
0.6422 0.1882 0.0610
0.6702 0.1983 0.0610
0.6965 0.2096 0.0610
0.7213 0.2227 0.0610
0.7448 0.2377 0.0610
0.7670 0.2554 0.0610
0.7877 0.2788 0.0610
0.8069 0.3112 0.0610
0.8251 0.3559 0.0610
0.8428 0.4176 0.0610
0.8606 0.5037 0.0610
0.0352 0.0849 0.1001
0.0383 0.0888 0.1056
0.0397 0.0932 0.1065
0.0420 0.0991 0.1041
0.0475 0.1053 0.0935
0.0620 0.1075 0.0704
0.0799 0.1084 0.0610
0.0946 0.1126 0.0610
0.1122 0.1167 0.0610
0.1331 0.1209 0.0610
0.1577 0.1252 0.0610
0.1861 0.1296 0.0610
0.2181 0.1342 0.0610
0.2531 0.1392 0.0610
0.2900 0.1437 0.0610
0.3282 0.1476 0.0610
0.3676 0.1519 0.0610
0.4074 0.1565 0.0610
0.4470 0.1617 0.0610
0.4858 0.1671 0.0610
0.5232 0.1727 0.0610
0.5584 0.1790 0.0610
0.5911 0.1859 0.0610
0.6216 0.1936 0.0610
0.6501 0.2021 0.0610
0.6768 0.2118 0.0610
0.7020 0.2228 0.0610
0.7257 0.2353 0.0610
0.7482 0.2499 0.0610
0.7696 0.2674 0.0610
0.7895 0.2907 0.0610
0.8082 0.3226 0.0610
0.8260 0.3662 0.0610
0.8434 0.4264 0.0610
0.8609 0.5102 0.0610
0.0417 0.1007 0.1176
0.0451 0.1042 0.1236
0.0463 0.1082 0.1249
0.0481 0.1135 0.1245
0.0513 0.1200 0.1198
0.0586 0.1262 0.1069
0.0762 0.1279 0.0820
0.0985 0.1282 0.0688
0.1178 0.1325 0.0657
0.1427 0.1363 0.0611
0.1690 0.1404 0.0610
0.1993 0.1447 0.0610
0.2329 0.1492 0.0610
0.2692 0.1539 0.0610
0.3076 0.1589 0.0610
0.3473 0.1642 0.0610
0.3873 0.1697 0.0610
0.4265 0.1739 0.0610
0.4650 0.1786 0.0610
0.5023 0.1837 0.0610
0.5378 0.1895 0.0610
0.5709 0.1958 0.0610
0.6019 0.2024 0.0610
0.6308 0.2097 0.0610
0.6579 0.2178 0.0610
0.6834 0.2270 0.0610
0.7074 0.2374 0.0610
0.7301 0.2494 0.0610
0.7518 0.2633 0.0610
0.7723 0.2805 0.0610
0.7914 0.3036 0.0610
0.8094 0.3349 0.0610
0.8268 0.3774 0.0610
0.8439 0.4359 0.0610
0.8612 0.5173 0.0610
0.0484 0.1168 0.1352
0.0519 0.1200 0.1411
0.0534 0.1237 0.1433
0.0549 0.1287 0.1439
0.0573 0.1349 0.1418
0.0618 0.1418 0.1348
0.0715 0.1479 0.1197
0.0929 0.1492 0.0949
0.1208 0.1489 0.0783
0.1436 0.1535 0.0750
0.1727 0.1576 0.0701
0.2086 0.1615 0.0641
0.2464 0.1655 0.0610
0.2838 0.1701 0.0610
0.3230 0.1749 0.0610
0.3631 0.1800 0.0610
0.4034 0.1855 0.0610
0.4432 0.1914 0.0610
0.4816 0.1977 0.0610
0.5176 0.2023 0.0610
0.5515 0.2075 0.0610
0.5829 0.2134 0.0610
0.6122 0.2199 0.0610
0.6396 0.2272 0.0610
0.6654 0.2350 0.0610
0.6897 0.2435 0.0610
0.7127 0.2533 0.0610
0.7345 0.2647 0.0610
0.7554 0.2779 0.0610
0.7750 0.2947 0.0610
0.7934 0.3174 0.0610
0.8108 0.3478 0.0610
0.8277 0.3892 0.0610
0.8445 0.4459 0.0610
0.8616 0.5247 0.0610
0.0554 0.1333 0.1531
0.0589 0.1364 0.1588
0.0610 0.1399 0.1620
0.0625 0.1446 0.1631
0.0646 0.1505 0.1626
0.0679 0.1574 0.1589
0.0741 0.1647 0.1496
0.0867 0.1706 0.1324
0.1127 0.1716 0.1072
0.1478 0.1705 0.0893
0.1747 0.1754 0.0860
0.2080 0.1800 0.0807
0.2473 0.1843 0.0740
0.2916 0.1882 0.0665
0.3369 0.1922 0.0610
0.3773 0.1971 0.0610
0.4176 0.2024 0.0610
0.4570 0.2080 0.0610
0.4950 0.2140 0.0610
0.5308 0.2205 0.0610
0.5639 0.2273 0.0610
0.5940 0.2325 0.0610
0.6220 0.2384 0.0610
0.6481 0.2450 0.0610
0.6726 0.2526 0.0610
0.6958 0.2612 0.0610
0.7178 0.2705 0.0610
0.7388 0.2810 0.0610
0.7588 0.2936 0.0610
0.7776 0.3101 0.0610
0.7953 0.3320 0.0610
0.8123 0.3615 0.0610
0.8287 0.4015 0.0610
0.8451 0.4564 0.0610
0.8620 0.5325 0.0610
0.0629 0.1505 0.1715
0.0666 0.1536 0.1770
0.0693 0.1568 0.1811
0.0708 0.1614 0.1825
0.0729 0.1671 0.1830
0.0757 0.1738 0.1812
0.0802 0.1812 0.1754
0.0885 0.1886 0.1642
0.1045 0.1944 0.1454
0.1363 0.1951 0.1194
0.1786 0.1938 0.1010
0.2109 0.1984 0.0972
0.2475 0.2033 0.0924
0.2893 0.2079 0.0857
0.3353 0.2121 0.0771
0.3838 0.2161 0.0678
0.4304 0.2202 0.0610
0.4694 0.2255 0.0610
0.5066 0.2313 0.0610
0.5417 0.2374 0.0610
0.5740 0.2440 0.0610
0.6036 0.2513 0.0610
0.6309 0.2583 0.0610
0.6560 0.2642 0.0610
0.6795 0.2710 0.0610
0.7018 0.2789 0.0610
0.7228 0.2880 0.0610
0.7429 0.2984 0.0610
0.7621 0.3105 0.0610
0.7801 0.3264 0.0610
0.7972 0.3475 0.0610
0.8136 0.3759 0.0610
0.8297 0.4143 0.0610
0.8458 0.4672 0.0610
0.8623 0.5406 0.0610
0.0712 0.1686 0.1904
0.0751 0.1715 0.1957
0.0785 0.1746 0.2006
0.0802 0.1791 0.2023
0.0822 0.1846 0.2033
0.0848 0.1910 0.2027
0.0886 0.1982 0.1994
0.0947 0.2060 0.1921
0.1055 0.2134 0.1789
0.1258 0.2188 0.1587
0.1645 0.2192 0.1316
0.2139 0.2178 0.1125
0.2514 0.2220 0.1078
0.2905 0.2271 0.1035
0.3338 0.2319 0.0974
0.3802 0.2364 0.0892
0.4279 0.2407 0.0788
0.4754 0.2447 0.0674
0.5173 0.2492 0.0610
0.5514 0.2551 0.0610
0.5827 0.2613 0.0610
0.6117 0.2681 0.0610
0.6384 0.2756 0.0610
0.6631 0.2839 0.0610
0.6859 0.2905 0.0610
0.7074 0.2976 0.0610
0.7277 0.3058 0.0610
0.7470 0.3156 0.0610
0.7652 0.3282 0.0610
0.7825 0.3436 0.0610
0.7991 0.3638 0.0610
0.8150 0.3909 0.0610
0.8308 0.4277 0.0610
0.8465 0.4783 0.0610
0.8628 0.5489 0.0610
0.0804 0.1875 0.2097
0.0845 0.1903 0.2148
0.0883 0.1933 0.2197
0.0906 0.1975 0.2222
0.0926 0.2028 0.2235
0.0953 0.2089 0.2238
0.0987 0.2159 0.2221
0.1037 0.2234 0.2176
0.1118 0.2313 0.2086
0.1259 0.2385 0.1941
0.1513 0.2435 0.1723
0.1975 0.2437 0.1442
0.2532 0.2422 0.1241
0.2951 0.2459 0.1183
0.3357 0.2512 0.1143
0.3794 0.2562 0.1085
0.4251 0.2610 0.1009
0.4711 0.2655 0.0911
0.5158 0.2698 0.0783
0.5576 0.2738 0.0651
0.5907 0.2792 0.0610
0.6188 0.2856 0.0610
0.6449 0.2925 0.0610
0.6691 0.3003 0.0610
0.6917 0.3089 0.0610
0.7126 0.3172 0.0610
0.7322 0.3245 0.0610
0.7508 0.3338 0.0610
0.7682 0.3457 0.0610
0.7848 0.3614 0.0610
0.8008 0.3808 0.0610
0.8164 0.4065 0.0610
0.8318 0.4415 0.0610
0.8472 0.4899 0.0610
0.8632 0.5573 0.0610
0.0907 0.2071 0.2293
0.0950 0.2099 0.2340
0.0991 0.2127 0.2386
0.1024 0.2167 0.2421
0.1046 0.2217 0.2436
0.1072 0.2275 0.2443
0.1105 0.2341 0.2437
0.1150 0.2413 0.2411
0.1216 0.2490 0.2352
0.1322 0.2568 0.2251
0.1502 0.2637 0.2093
0.1816 0.2684 0.1863
0.2347 0.2684 0.1571
0.2955 0.2668 0.1359
0.3409 0.2701 0.1290
0.3819 0.2754 0.1251
0.4251 0.2805 0.1195
0.4690 0.2856 0.1120
0.5124 0.2903 0.1026
0.5535 0.2949 0.0904
0.5915 0.2992 0.0748
0.6255 0.3035 0.0610
0.6509 0.3101 0.0610
0.6745 0.3173 0.0610
0.6965 0.3253 0.0610
0.7172 0.3344 0.0610
0.7365 0.3442 0.0610
0.7543 0.3529 0.0610
0.7711 0.3641 0.0610
0.7872 0.3789 0.0610
0.8026 0.3983 0.0610
0.8178 0.4227 0.0610
0.8328 0.4559 0.0610
0.8479 0.5018 0.0610
0.8637 0.5659 0.0610
0.1024 0.2273 0.2488
0.1070 0.2299 0.2533
0.1114 0.2326 0.2576
0.1158 0.2363 0.2619
0.1182 0.2411 0.2634
0.1209 0.2466 0.2645
0.1243 0.2528 0.2646
0.1285 0.2596 0.2633
0.1343 0.2670 0.2597
0.1429 0.2747 0.2529
0.1566 0.2823 0.2418
0.1790 0.2890 0.2248
0.2164 0.2933 0.2007
0.2753 0.2931 0.1705
0.3398 0.2914 0.1480
0.3875 0.2942 0.1399
0.4279 0.2997 0.1361
0.4695 0.3050 0.1305
0.5109 0.3102 0.1230
0.5509 0.3151 0.1135
0.5881 0.3199 0.1016
0.6226 0.3244 0.0857
0.6542 0.3289 0.0674
0.6795 0.3349 0.0610
0.7010 0.3424 0.0610
0.7212 0.3508 0.0610
0.7400 0.3609 0.0610
0.7575 0.3729 0.0610
0.7738 0.3833 0.0610
0.7894 0.3971 0.0610
0.8044 0.4153 0.0610
0.8191 0.4394 0.0610
0.8338 0.4706 0.0610
0.8487 0.5140 0.0610
0.8641 0.5748 0.0610
0.1157 0.2479 0.2683
0.1206 0.2505 0.2724
0.1254 0.2530 0.2764
0.1313 0.2564 0.2814
0.1338 0.2609 0.2830
0.1367 0.2661 0.2842
0.1401 0.2719 0.2849
0.1442 0.2784 0.2843
0.1497 0.2853 0.2823
0.1572 0.2927 0.2779
0.1682 0.3003 0.2703
0.1853 0.3077 0.2583
0.2123 0.3141 0.2404
0.2549 0.3181 0.2157
0.3184 0.3178 0.1844
0.3850 0.3160 0.1605
0.4336 0.3185 0.1513
0.4725 0.3240 0.1473
0.5117 0.3295 0.1416
0.5498 0.3348 0.1341
0.5861 0.3399 0.1243
0.6198 0.3449 0.1121
0.6512 0.3497 0.0962
0.6802 0.3544 0.0756
0.7052 0.3599 0.0610
0.7249 0.3680 0.0610
0.7432 0.3776 0.0610
0.7602 0.3894 0.0610
0.7763 0.4033 0.0610
0.7915 0.4160 0.0610
0.8061 0.4330 0.0610
0.8205 0.4557 0.0610
0.8348 0.4858 0.0610
0.8494 0.5266 0.0610
0.8646 0.5838 0.0610
0.1309 0.2690 0.2876
0.1363 0.2714 0.2915
0.1414 0.2738 0.2952
0.1478 0.2769 0.2998
0.1517 0.2811 0.3023
0.1549 0.2860 0.3037
0.1585 0.2915 0.3045
0.1627 0.2975 0.3047
0.1679 0.3040 0.3036
0.1747 0.3110 0.3007
0.1840 0.3184 0.2957
0.1976 0.3259 0.2875
0.2181 0.3331 0.2747
0.2495 0.3391 0.2562
0.2964 0.3429 0.2311
0.3629 0.3424 0.1989
0.4300 0.3406 0.1735
0.4781 0.3427 0.1630
0.5147 0.3483 0.1590
0.5508 0.3539 0.1531
0.5854 0.3594 0.1453
0.6182 0.3647 0.1350
0.6489 0.3699 0.1223
0.6776 0.3750 0.1058
0.7043 0.3800 0.0836
0.7282 0.3857 0.0610
0.7459 0.3951 0.0610
0.7627 0.4063 0.0610
0.7785 0.4199 0.0610
0.7935 0.4356 0.0610
0.8078 0.4513 0.0610
0.8218 0.4724 0.0610
0.8359 0.5012 0.0610
0.8502 0.5395 0.0610
0.8651 0.5931 0.0610
0.1485 0.2903 0.3068
0.1543 0.2926 0.3103
0.1599 0.2949 0.3138
0.1668 0.2979 0.3180
0.1725 0.3017 0.3214
0.1759 0.3063 0.3228
0.1795 0.3114 0.3238
0.1839 0.3170 0.3243
0.1890 0.3231 0.3239
0.1953 0.3296 0.3224
0.2035 0.3366 0.3190
0.2148 0.3440 0.3133
0.2310 0.3513 0.3045
0.2547 0.3583 0.2913
0.2897 0.3641 0.2724
0.3399 0.3676 0.2468
0.4078 0.3671 0.2138
0.4737 0.3651 0.1871
0.5201 0.3670 0.1752
0.5537 0.3727 0.1712
0.5864 0.3785 0.1650
0.6177 0.3841 0.1567
0.6475 0.3896 0.1458
0.6757 0.3951 0.1321
0.7021 0.4006 0.1135
0.7268 0.4063 0.0873
0.7485 0.4131 0.0610
0.7649 0.4239 0.0610
0.7804 0.4368 0.0610
0.7952 0.4527 0.0610
0.8094 0.4701 0.0610
0.8232 0.4896 0.0610
0.8369 0.5163 0.0610
0.8509 0.5526 0.0610
0.8656 0.6026 0.0610
0.1689 0.3121 0.3258
0.1752 0.3143 0.3291
0.1812 0.3164 0.3323
0.1885 0.3192 0.3362
0.1962 0.3226 0.3402
0.1997 0.3269 0.3416
0.2036 0.3317 0.3428
0.2079 0.3369 0.3435
0.2130 0.3426 0.3437
0.2190 0.3488 0.3428
0.2264 0.3553 0.3408
0.2361 0.3622 0.3371
0.2493 0.3694 0.3309
0.2678 0.3766 0.3216
0.2942 0.3834 0.3082
0.3321 0.3890 0.2889
0.3844 0.3923 0.2630
0.4520 0.3917 0.2292
0.5152 0.3897 0.2011
0.5586 0.3914 0.1881
0.5891 0.3971 0.1838
0.6187 0.4031 0.1773
0.6472 0.4089 0.1684
0.6745 0.4147 0.1561
0.7004 0.4208 0.1394
0.7248 0.4270 0.1167
0.7477 0.4335 0.0841
0.7669 0.4420 0.0610
0.7821 0.4544 0.0610
0.7967 0.4694 0.0610
0.8109 0.4880 0.0610
0.8245 0.5073 0.0610
0.8380 0.5318 0.0610
0.8517 0.5659 0.0610
0.8662 0.6122 0.0610
0.1924 0.3342 0.3447
0.1990 0.3362 0.3477
0.2053 0.3383 0.3507
0.2130 0.3408 0.3543
0.2220 0.3440 0.3585
0.2265 0.3479 0.3603
0.2305 0.3524 0.3616
0.2349 0.3573 0.3624
0.2399 0.3626 0.3629
0.2456 0.3683 0.3627
0.2525 0.3744 0.3616
0.2610 0.3809 0.3591
0.2720 0.3877 0.3551
0.2869 0.3948 0.3486
0.3073 0.4018 0.3390
0.3359 0.4084 0.3253
0.3758 0.4139 0.3057
0.4288 0.4171 0.2795
0.4946 0.4164 0.2451
0.5537 0.4144 0.2157
0.5935 0.4159 0.2015
0.6212 0.4218 0.1970
0.6481 0.4280 0.1895
0.6742 0.4342 0.1786
0.6994 0.4407 0.1634
0.7233 0.4474 0.1429
0.7460 0.4543 0.1146
0.7673 0.4616 0.0730
0.7837 0.4725 0.0610
0.7981 0.4867 0.0610
0.8121 0.5040 0.0610
0.8258 0.5253 0.0610
0.8390 0.5476 0.0610
0.8525 0.5788 0.0610
0.8667 0.6221 0.0610
0.2191 0.3567 0.3636
0.2260 0.3586 0.3664
0.2325 0.3605 0.3691
0.2404 0.3629 0.3724
0.2497 0.3658 0.3763
0.2563 0.3694 0.3790
0.2603 0.3736 0.3803
0.2647 0.3782 0.3813
0.2696 0.3831 0.3819
0.2752 0.3884 0.3821
0.2815 0.3941 0.3815
0.2892 0.4001 0.3802
0.2986 0.4066 0.3773
0.3108 0.4133 0.3730
0.3269 0.4202 0.3664
0.3489 0.4271 0.3565
0.3788 0.4335 0.3427
0.4197 0.4388 0.3228
0.4720 0.4419 0.2964
0.5345 0.4412 0.2614
0.5887 0.4391 0.2307
0.6252 0.4407 0.2149
0.6503 0.4470 0.2090
0.6750 0.4536 0.1994
0.6991 0.4604 0.1860
0.7223 0.4674 0.1671
0.7446 0.4748 0.1416
0.7658 0.4824 0.1058
0.7852 0.4910 0.0610
0.7994 0.5045 0.0610
0.8133 0.5207 0.0610
0.8268 0.5409 0.0610
0.8401 0.5637 0.0610
0.8534 0.5920 0.0610
0.8673 0.6322 0.0610
0.2491 0.3797 0.3826
0.2561 0.3815 0.3852
0.2627 0.3833 0.3877
0.2708 0.3855 0.3908
0.2801 0.3882 0.3944
0.2889 0.3914 0.3979
0.2930 0.3953 0.3991
0.2974 0.3995 0.4002
0.3021 0.4041 0.4010
0.3074 0.4090 0.4015
0.3134 0.4143 0.4014
0.3202 0.4199 0.4006
0.3285 0.4259 0.3990
0.3387 0.4322 0.3959
0.3517 0.4388 0.3913
0.3688 0.4456 0.3844
0.3916 0.4523 0.3744
0.4222 0.4586 0.3604
0.4628 0.4639 0.3402
0.5132 0.4670 0.3133
0.5712 0.4664 0.2771
0.6206 0.4645 0.2443
0.6539 0.4663 0.2264
0.6770 0.4729 0.2187
0.6997 0.4801 0.2069
0.7220 0.4873 0.1901
0.7437 0.4949 0.1667
0.7645 0.5029 0.1347
0.7845 0.5113 0.0867
0.8006 0.5226 0.0610
0.8143 0.5378 0.0610
0.8278 0.5564 0.0610
0.8412 0.5800 0.0610
0.8542 0.6054 0.0610
0.8679 0.6425 0.0610
0.2823 0.4033 0.4019
0.2893 0.4049 0.4043
0.2959 0.4066 0.4066
0.3040 0.4086 0.4095
0.3132 0.4111 0.4128
0.3234 0.4140 0.4166
0.3283 0.4176 0.4183
0.3326 0.4215 0.4194
0.3372 0.4257 0.4203
0.3421 0.4303 0.4209
0.3478 0.4351 0.4212
0.3540 0.4403 0.4209
0.3612 0.4459 0.4200
0.3699 0.4517 0.4180
0.3805 0.4580 0.4148
0.3940 0.4645 0.4097
0.4115 0.4712 0.4026
0.4346 0.4779 0.3922
0.4648 0.4842 0.3777
0.5041 0.4895 0.3568
0.5515 0.4927 0.3290
0.6045 0.4922 0.2911
0.6497 0.4905 0.2559
0.6801 0.4926 0.2359
0.7014 0.4996 0.2262
0.7225 0.5072 0.2115
0.7433 0.5149 0.1906
0.7637 0.5230 0.1612
0.7832 0.5317 0.1199
0.8018 0.5411 0.0610
0.8153 0.5551 0.0610
0.8287 0.5723 0.0610
0.8420 0.5939 0.0610
0.8551 0.6191 0.0610
0.8685 0.6526 0.0610
0.3187 0.4275 0.4216
0.3256 0.4290 0.4239
0.3320 0.4305 0.4260
0.3399 0.4324 0.4287
0.3490 0.4347 0.4319
0.3588 0.4374 0.4354
0.3661 0.4405 0.4379
0.3702 0.4442 0.4391
0.3745 0.4481 0.4400
0.3792 0.4523 0.4407
0.3843 0.4568 0.4411
0.3900 0.4616 0.4411
0.3963 0.4668 0.4405
0.4037 0.4723 0.4392
0.4124 0.4781 0.4369
0.4232 0.4843 0.4333
0.4367 0.4908 0.4277
0.4541 0.4974 0.4202
0.4766 0.5041 0.4093
0.5057 0.5103 0.3942
0.5427 0.5156 0.3726
0.5863 0.5189 0.3436
0.6350 0.5185 0.3036
0.6764 0.5170 0.2656
0.7042 0.5194 0.2433
0.7239 0.5268 0.2312
0.7437 0.5347 0.2129
0.7632 0.5430 0.1866
0.7824 0.5516 0.1489
0.8010 0.5609 0.0926
0.8163 0.5727 0.0610
0.8295 0.5884 0.0610
0.8427 0.6080 0.0610
0.8560 0.6330 0.0610
0.8692 0.6630 0.0610
0.3580 0.4524 0.4421
0.3646 0.4539 0.4441
0.3708 0.4553 0.4461
0.3784 0.4571 0.4485
0.3870 0.4592 0.4514
0.3963 0.4617 0.4545
0.4058 0.4645 0.4578
0.4096 0.4679 0.4588
0.4136 0.4716 0.4597
0.4179 0.4755 0.4604
0.4224 0.4797 0.4608
0.4275 0.4841 0.4609
0.4331 0.4889 0.4606
0.4393 0.4940 0.4597
0.4466 0.4994 0.4581
0.4552 0.5051 0.4554
0.4657 0.5111 0.4515
0.4789 0.5176 0.4455
0.4955 0.5240 0.4376
0.5169 0.5306 0.4262
0.5441 0.5368 0.4104
0.5782 0.5421 0.3878
0.6181 0.5454 0.3574
0.6629 0.5452 0.3149
0.7010 0.5438 0.2734
0.7264 0.5467 0.2485
0.7448 0.5544 0.2334
0.7634 0.5626 0.2104
0.7819 0.5712 0.1766
0.8001 0.5804 0.1272
0.8172 0.5906 0.0610
0.8304 0.6048 0.0610
0.8435 0.6226 0.0610
0.8567 0.6457 0.0610
0.8699 0.6737 0.0610
0.3998 0.4786 0.4625
0.4059 0.4800 0.4644
0.4117 0.4813 0.4661
0.4187 0.4830 0.4683
0.4267 0.4850 0.4709
0.4354 0.4874 0.4737
0.4446 0.4900 0.4768
0.4502 0.4930 0.4786
0.4539 0.4964 0.4794
0.4577 0.4999 0.4800
0.4618 0.5038 0.4805
0.4662 0.5079 0.4807
0.4710 0.5122 0.4806
0.4763 0.5168 0.4800
0.4823 0.5218 0.4788
0.4893 0.5270 0.4770
0.4974 0.5325 0.4739
0.5073 0.5384 0.4698
0.5196 0.5446 0.4634
0.5351 0.5508 0.4551
0.5548 0.5572 0.4432
0.5796 0.5633 0.4267
0.6106 0.5685 0.4030
0.6473 0.5720 0.3708
0.6886 0.5719 0.3249
0.7237 0.5707 0.2793
0.7470 0.5741 0.2515
0.7644 0.5820 0.2324
0.7820 0.5904 0.2030
0.7996 0.5994 0.1585
0.8170 0.6091 0.0883
0.8312 0.6214 0.0610
0.8442 0.6373 0.0610
0.8573 0.6581 0.0610
0.8706 0.6847 0.0610
0.4433 0.5063 0.4831
0.4488 0.5075 0.4848
0.4541 0.5087 0.4864
0.4604 0.5103 0.4883
0.4677 0.5121 0.4906
0.4755 0.5143 0.4932
0.4837 0.5167 0.4960
0.4914 0.5193 0.4986
0.4947 0.5224 0.4994
0.4980 0.5256 0.5000
0.5016 0.5291 0.5005
0.5054 0.5328 0.5007
0.5094 0.5367 0.5007
0.5139 0.5408 0.5004
0.5188 0.5452 0.4996
0.5242 0.5499 0.4982
0.5307 0.5549 0.4962
0.5381 0.5602 0.4929
0.5471 0.5657 0.4885
0.5582 0.5716 0.4818
0.5722 0.5776 0.4731
0.5898 0.5838 0.4606
0.6122 0.5897 0.4433
0.6404 0.5949 0.4184
0.6741 0.5984 0.3840
