Assets/Materials/color-processing.cube
#Created by: Pixelmator Pro
#Color profile: "sRGB IEC61966-2.1"
TITLE "color-processing"
#Data domain
#LUT size
LUT_3D_SIZE 5
DOMAIN_MIN 0.000000 0.000000 0.000000
DOMAIN_MAX 0.823529 0.823529 0.823529
0.0220 0.0451 0.0610
0.0498 0.0525 0.0610
0.1943 0.0844 0.0610
0.4968 0.1251 0.0610
0.7337 0.2022 0.0610
0.0484 0.1168 0.1352
0.0929 0.1492 0.0949
0.3230 0.1749 0.0610
0.5829 0.2134 0.0610
0.7554 0.2779 0.0610
0.1157 0.2479 0.2683
0.1442 0.2784 0.2843
0.3184 0.3178 0.1844
0.6198 0.3449 0.1121
0.7763 0.4033 0.0610
0.2823 0.4033 0.4019
0.3326 0.4215 0.4194
0.3805 0.4580 0.4148
0.6045 0.4922 0.2911
0.7832 0.5317 0.1199
0.5760 0.5960 0.5490
0.6052 0.6047 0.5602
0.6256 0.6211 0.5652
0.6528 0.6464 0.5512
0.7750 0.6755 0.3576
0.0220 0.0457 0.0793
0.0589 0.0554 0.1313
0.1849 0.0738 0.1512
0.4981 0.1179 0.1584
0.7399 0.1932 0.1446
0.0220 0.1460 0.1896
0.0806 0.1642 0.1995
0.2681 0.1933 0.2030
0.5607 0.2247 0.1919
0.7560 0.2805 0.1638
0.0952 0.2746 0.2833
0.1652 0.2889 0.3151
0.2972 0.3290 0.2716
0.6137 0.3597 0.2216
0.7828 0.3983 0.1237
0.2687 0.4182 0.4093
0.3454 0.4313 0.4308
0.4041 0.4626 0.4435
0.5956 0.4996 0.3515
0.7818 0.5411 0.2177
0.5720 0.6028 0.5524
0.6043 0.6104 0.5631
0.6383 0.6250 0.5767
0.6602 0.6487 0.5688
0.7729 0.6784 0.4016
0.0220 0.0541 0.2732
0.0743 0.0760 0.2478
0.1586 0.1121 0.2595
0.4140 0.1291 0.2884
0.7158 0.2018 0.3089
0.0220 0.1630 0.2834
0.0759 0.1615 0.3106
0.1891 0.1997 0.3032
0.4546 0.2186 0.3224
0.7292 0.3004 0.3389
0.0220 0.3183 0.3699
0.0789 0.3298 0.3734
0.2616 0.3466 0.3751
0.5517 0.3795 0.3803
0.7550 0.4301 0.3615
0.1500 0.4574 0.4328
0.2827 0.4575 0.4428
0.4380 0.4719 0.4711
0.5773 0.5104 0.4289
0.7800 0.5551 0.3420
0.5497 0.6156 0.5588
0.5933 0.6209 0.5680
0.6436 0.6321 0.5847
0.6739 0.6526 0.5930
0.7690 0.6829 0.4648
0.0294 0.0829 0.4184
0.0900 0.0963 0.3991
0.1978 0.1467 0.3634
0.3893 0.1863 0.3913
0.6796 0.2189 0.4254
0.0220 0.1858 0.4245
0.0824 0.1802 0.4318
0.2241 0.2154 0.4022
0.4161 0.2632 0.4161
0.6896 0.2918 0.4435
0.0220 0.3293 0.4558
0.0497 0.3382 0.4702
0.2403 0.3381 0.4687
0.4728 0.3821 0.4620
0.7130 0.4181 0.4763
0.0247 0.4937 0.5247
0.0829 0.4990 0.5248
0.2516 0.5115 0.5259
0.5479 0.5282 0.5207
0.7503 0.5723 0.5065
0.3857 0.6432 0.5810
0.5007 0.6437 0.5834
0.6133 0.6472 0.5920
0.6880 0.6594 0.6125
0.7620 0.6891 0.5458
0.0481 0.1357 0.5865
0.1143 0.1438 0.5759
0.2738 0.1731 0.5545
0.4659 0.2496 0.5205
0.6631 0.3201 0.5524
0.0326 0.2234 0.6012
0.1016 0.2251 0.5931
0.2737 0.2437 0.5756
0.4861 0.3056 0.5440
0.6708 0.3781 0.5647
0.0220 0.3668 0.5984
0.0652 0.3566 0.6177
0.2507 0.3565 0.6079
0.5141 0.3931 0.5820
0.6849 0.4652 0.5844
0.0220 0.5073 0.6288
0.0364 0.5140 0.6396
0.1424 0.5175 0.6394
0.5207 0.5205 0.6322
0.7090 0.5758 0.6132
0.0342 0.6733 0.6762
0.0894 0.6757 0.6747
0.2469 0.6802 0.6723
0.5284 0.6885 0.6690
0.7471 0.7018 0.6571
