Assets/Materials/color-processing.cube
#Created by: Pixelmator Pro
#Color profile: "sRGB IEC61966-2.1"
TITLE "color-processing"
#Data domain
#LUT size
LUT_3D_SIZE 7
DOMAIN_MIN 0.000000 0.000000 0.000000
DOMAIN_MAX 0.882353 0.882353 0.882353
0.0220 0.0451 0.0610
0.0259 0.0462 0.0610
0.0929 0.0650 0.0610
0.2307 0.0894 0.0610
0.4520 0.1181 0.0610
0.6479 0.1606 0.0610
0.7818 0.2447 0.0610
0.0352 0.0849 0.1001
0.0620 0.1075 0.0704
0.1577 0.1252 0.0610
0.3282 0.1476 0.0610
0.5232 0.1727 0.0610
0.6768 0.2118 0.0610
0.7895 0.2907 0.0610
0.0712 0.1686 0.1904
0.0848 0.1910 0.2027
0.1645 0.2192 0.1316
0.3802 0.2364 0.0892
0.5827 0.2613 0.0610
0.7074 0.2976 0.0610
0.7991 0.3638 0.0610
0.1309 0.2690 0.2876
0.1549 0.2860 0.3037
0.1840 0.3184 0.2957
0.3629 0.3424 0.1989
0.5854 0.3594 0.1453
0.7282 0.3857 0.0610
0.8078 0.4513 0.0610
0.2491 0.3797 0.3826
0.2889 0.3914 0.3979
0.3134 0.4143 0.4014
0.3688 0.4456 0.3844
0.5712 0.4664 0.2771
0.7220 0.4873 0.1901
0.8143 0.5378 0.0610
0.4433 0.5063 0.4831
0.4755 0.5143 0.4932
0.5016 0.5291 0.5005
0.5242 0.5499 0.4982
0.5722 0.5776 0.4731
0.7124 0.5984 0.3341
0.8164 0.6274 0.1280
0.6589 0.6591 0.5991
0.6705 0.6626 0.6043
0.6869 0.6686 0.6127
0.6949 0.6771 0.6144
0.7049 0.6887 0.6114
0.7262 0.7060 0.5887
0.8111 0.7243 0.3735
0.0220 0.0451 0.0610
0.0408 0.0451 0.0953
0.1008 0.0519 0.1114
0.2486 0.0785 0.1170
0.4742 0.1093 0.1145
0.6639 0.1491 0.1033
0.7908 0.2255 0.0691
0.0220 0.1031 0.1348
0.0553 0.1176 0.1456
0.1388 0.1358 0.1482
0.3117 0.1531 0.1425
0.5235 0.1747 0.1324
0.6844 0.2081 0.1159
0.7973 0.2744 0.0701
0.0602 0.1885 0.2030
0.0945 0.1989 0.2294
0.1530 0.2282 0.1957
0.3682 0.2489 0.1666
0.5997 0.2664 0.1146
0.7177 0.2909 0.1011
0.8059 0.3504 0.0610
0.1237 0.2829 0.2952
0.1639 0.2947 0.3166
0.1976 0.3224 0.3268
0.3505 0.3494 0.2546
0.5773 0.3688 0.2136
0.7288 0.3937 0.1348
0.8129 0.4453 0.0610
0.2428 0.3895 0.3876
0.2897 0.3991 0.4027
0.3347 0.4186 0.4175
0.3778 0.4485 0.4086
0.5646 0.4714 0.3196
0.7188 0.4943 0.2492
0.8183 0.5394 0.0610
0.4395 0.5128 0.4863
0.4745 0.5199 0.4959
0.5169 0.5331 0.5099
0.5365 0.5527 0.5102
0.5763 0.5798 0.4904
0.7099 0.6015 0.3663
0.8156 0.6311 0.1892
0.6578 0.6618 0.6007
0.6700 0.6652 0.6058
0.6870 0.6708 0.6140
0.6999 0.6788 0.6198
0.7090 0.6900 0.6181
0.7281 0.7068 0.5992
0.8104 0.7254 0.4002
0.0220 0.0488 0.1639
0.0513 0.0543 0.1743
0.0907 0.0796 0.1841
0.1936 0.0898 0.2047
0.4103 0.1116 0.2167
0.6357 0.1565 0.2240
0.7822 0.2419 0.2125
0.0220 0.1154 0.1968
0.0527 0.1157 0.2254
0.1045 0.1396 0.2197
0.2197 0.1478 0.2329
0.4487 0.1809 0.2468
0.6521 0.2270 0.2494
0.7873 0.3010 0.2258
0.0220 0.2175 0.2724
0.0544 0.2288 0.2786
0.1361 0.2416 0.2802
0.3013 0.2635 0.2842
0.5202 0.2885 0.2837
0.6837 0.3174 0.2739
0.7970 0.3738 0.2278
0.0672 0.3207 0.3220
0.1287 0.3189 0.3287
0.2204 0.3297 0.3543
0.3280 0.3588 0.3255
0.5649 0.3816 0.3022
0.7238 0.4063 0.2538
0.8101 0.4524 0.1921
0.2058 0.4093 0.3972
0.2694 0.4140 0.4093
0.3520 0.4270 0.4312
0.3975 0.4522 0.4398
0.5526 0.4789 0.3754
0.7136 0.5046 0.3256
0.8215 0.5448 0.1202
0.4222 0.5243 0.4914
0.4649 0.5297 0.5002
0.5186 0.5404 0.5147
0.5559 0.5575 0.5265
0.5844 0.5828 0.5154
0.7054 0.6063 0.4111
0.8144 0.6367 0.2747
0.6541 0.6664 0.6032
0.6677 0.6693 0.6081
0.6862 0.6743 0.6160
0.7062 0.6816 0.6265
0.7156 0.6921 0.6277
0.7315 0.7082 0.6142
0.8092 0.7272 0.4389
0.0220 0.0556 0.2991
0.0590 0.0657 0.2825
0.1034 0.1024 0.2514
0.1828 0.1208 0.2785
0.3611 0.1335 0.3026
0.5963 0.1583 0.3166
0.7711 0.2472 0.3286
0.0220 0.1302 0.2959
0.0555 0.1252 0.3161
0.1167 0.1489 0.2891
0.2009 0.1744 0.3035
0.3823 0.1863 0.3231
0.6132 0.2205 0.3377
0.7759 0.3076 0.3421
0.0220 0.2247 0.3378
0.0406 0.2330 0.3519
0.1275 0.2358 0.3522
0.2431 0.2653 0.3468
0.4265 0.2726 0.3556
0.6416 0.3189 0.3709
0.7839 0.3930 0.3577
0.0220 0.3434 0.3922
0.0561 0.3499 0.3941
0.1323 0.3612 0.3969
0.3011 0.3724 0.3970
0.5084 0.3937 0.4002
0.6808 0.4256 0.3987
0.7964 0.4762 0.3604
0.0665 0.4544 0.4346
0.1411 0.4504 0.4335
0.2936 0.4486 0.4407
0.4241 0.4587 0.4629
0.5339 0.4875 0.4341
0.7073 0.5160 0.3999
0.8137 0.5568 0.3169
0.3567 0.5437 0.5016
0.4216 0.5461 0.5077
0.5003 0.5522 0.5194
0.5663 0.5646 0.5368
0.5984 0.5863 0.5422
0.6988 0.6119 0.4621
0.8129 0.6435 0.3602
0.6440 0.6730 0.6069
0.6604 0.6753 0.6113
0.6824 0.6794 0.6187
0.7051 0.6855 0.6287
0.7242 0.6949 0.6387
0.7366 0.7099 0.6315
0.8074 0.7294 0.4851
0.0277 0.0776 0.3987
0.0663 0.0850 0.3859
0.1269 0.1094 0.3626
0.2056 0.1519 0.3434
0.3489 0.1733 0.3723
0.5652 0.1926 0.3986
0.7545 0.2493 0.4172
0.0220 0.1437 0.4059
0.0607 0.1411 0.4072
0.1319 0.1564 0.3879
0.2246 0.1994 0.3636
0.3665 0.2235 0.3890
0.5761 0.2414 0.4125
0.7595 0.3040 0.4286
0.0220 0.2446 0.4051
0.0385 0.2412 0.4347
0.1263 0.2393 0.4265
0.2607 0.2700 0.4047
0.3998 0.3008 0.4171
0.5954 0.3139 0.4346
0.7677 0.3854 0.4447
0.0220 0.3483 0.4534
0.0438 0.3544 0.4602
0.0990 0.3620 0.4622
0.2854 0.3666 0.4637
0.4535 0.3964 0.4578
0.6263 0.4062 0.4646
0.7786 0.4817 0.4623
0.0235 0.4686 0.5019
0.0597 0.4720 0.5020
0.1324 0.4789 0.5032
0.2931 0.4903 0.5051
0.5101 0.5016 0.5012
0.6731 0.5275 0.4959
0.7950 0.5742 0.4695
0.0943 0.5843 0.5432
0.1852 0.5822 0.5400
0.3603 0.5803 0.5386
0.5224 0.5818 0.5442
0.6152 0.5925 0.5623
0.6883 0.6189 0.5218
0.8112 0.6514 0.4448
0.6106 0.6835 0.6143
0.6356 0.6848 0.6175
0.6674 0.6874 0.6232
0.6982 0.6917 0.6317
0.7267 0.6991 0.6443
0.7443 0.7122 0.6501
0.8047 0.7323 0.5413
0.0385 0.1079 0.5054
0.0768 0.1131 0.4965
0.1508 0.1291 0.4806
0.2639 0.1645 0.4582
0.3844 0.2207 0.4421
0.5546 0.2511 0.4746
0.7359 0.2870 0.5068
0.0280 0.1654 0.5184
0.0699 0.1668 0.5111
0.1490 0.1775 0.4971
0.2746 0.2077 0.4762
0.4017 0.2632 0.4561
0.5642 0.2941 0.4864
0.7393 0.3279 0.5145
0.0220 0.2655 0.5167
0.0520 0.2571 0.5322
0.1358 0.2579 0.5228
0.2850 0.2761 0.5055
0.4314 0.3255 0.4804
0.5804 0.3577 0.5058
0.7448 0.3883 0.5256
0.0220 0.3698 0.5228
0.0220 0.3717 0.5489
0.0959 0.3654 0.5513
0.2748 0.3657 0.5437
0.4713 0.3972 0.5222
0.6038 0.4356 0.5308
0.7530 0.4606 0.5392
0.0220 0.4734 0.5726
0.0436 0.4776 0.5770
0.0976 0.4823 0.5770
0.2085 0.4909 0.5785
0.4927 0.4965 0.5763
0.6373 0.5309 0.5629
0.7683 0.5586 0.5611
0.0299 0.5970 0.6138
0.0645 0.5993 0.6128
0.1353 0.6036 0.6113
0.2851 0.6102 0.6096
0.4974 0.6205 0.6072
0.6730 0.6314 0.5977
0.7913 0.6607 0.5805
0.3660 0.7057 0.6427
0.4578 0.7054 0.6417
0.5632 0.7053 0.6413
0.6472 0.7059 0.6431
0.7089 0.7085 0.6495
0.7526 0.7164 0.6649
0.8000 0.7363 0.6113
0.0580 0.1643 0.6478
0.0999 0.1683 0.6432
0.1903 0.1790 0.6353
0.3316 0.2013 0.6233
0.4812 0.2452 0.6049
0.5990 0.3263 0.5796
0.7268 0.3878 0.6104
0.0501 0.2175 0.6543
0.0912 0.2197 0.6505
0.1827 0.2271 0.6434
0.3303 0.2449 0.6325
0.4876 0.2828 0.6153
0.6066 0.3597 0.5875
0.7296 0.4198 0.6153
0.0316 0.2994 0.6641
0.0743 0.2984 0.6611
0.1641 0.3007 0.6555
0.3229 0.3112 0.6465
0.4950 0.3399 0.6309
0.6193 0.4059 0.6035
0.7342 0.4672 0.6229
0.0220 0.4006 0.6622
0.0450 0.3933 0.6731
0.1279 0.3903 0.6694
0.2979 0.3932 0.6626
0.4973 0.4107 0.6496
0.6346 0.4626 0.6238
0.7407 0.5235 0.6328
0.0220 0.5038 0.6609
0.0220 0.5041 0.6745
0.0646 0.5018 0.6822
0.2241 0.4968 0.6794
0.4796 0.5009 0.6713
0.6517 0.5334 0.6495
0.7504 0.5882 0.6463
0.0220 0.6064 0.6896
0.0256 0.6102 0.6940
0.0743 0.6129 0.6929
0.1629 0.6169 0.6918
0.3663 0.6215 0.6914
0.6575 0.6267 0.6848
0.7664 0.6632 0.6672
0.0374 0.7223 0.7178
0.0702 0.7232 0.7171
0.1402 0.7248 0.7160
0.2825 0.7271 0.7145
0.4826 0.7306 0.7127
0.6618 0.7365 0.7101
0.7905 0.7452 0.7003
